material/.icons/material/phone-rotate-landscape.svg

<svg xmlns="http://www.w3.org/2000/svg" viewBox="0 0 24 24"><path d="M9 1H3a2 2 0 00-2 2v13a2 2 0 002 2h6a2 2 0 002-2V3a2 2 0 00-2-2m0 14H3V3h6v12m12-2h-8v2h8v6H9v-1H6v1a2 2 0 002 2h13a2 2 0 002-2v-6a2 2 0 00-2-2m2-3l-4-2 1.91-.91A7.516 7.516 0 0014 2.5V1a9 9 0 019 9z"/></svg>

<?xml version="1.0" encoding="UTF-8"?><!DOCTYPE svg PUBLIC "-//W3C//DTD SVG 1.1//EN" "http://www.w3.org/Graphics/SVG/1.1/DTD/svg11.dtd"><svg xmlns="http://www.w3.org/2000/svg" xmlns:xlink="http://www.w3.org/1999/xlink" version="1.1" id="mdi-phone-rotate-landscape" width="24" height="24" viewBox="0 0 24 24"><path d="M9,1H3A2,2 0 0,0 1,3V16A2,2 0 0,0 3,18H9A2,2 0 0,0 11,16V3A2,2 0 0,0 9,1M9,15H3V3H9V15M21,13H13V15H21V21H9V20H6V21A2,2 0 0,0 8,23H21A2,2 0 0,0 23,21V15A2,2 0 0,0 21,13M23,10L19,8L20.91,7.09C19.74,4.31 17,2.5 14,2.5V1A9,9 0 0,1 23,10Z" /></svg>
